img/truck.svg

<svg width="21" height="17" xmlns="http://www.w3.org/2000/svg">

 <g>
  <title>background</title>
  <rect fill="none" id="canvas_background" height="602" width="802" y="-1" x="-1"/>
 </g>
 <g>
  <title>Layer 1</title>
  <g id="svg_1" opacity="0.5">
   <rect fill="none" id="svg_2" stroke-linejoin="round" stroke-linecap="round" stroke-width="2" stroke="#333333" height="10.8333" width="12.5" y="1" x="1"/>
   <path fill="none" id="svg_3" stroke-linejoin="round" stroke-linecap="round" stroke-width="2" stroke="#333333" d="m13.5,5.16669l3.3333,0l2.5,2.5l0,4.16671l-5.8333,0l0,-6.66671l0,0z" clip-rule="evenodd" fill-rule="evenodd"/>
   <path fill="none" id="svg_4" stroke-linejoin="round" stroke-linecap="round" stroke-width="2" stroke="#333333" d="m4.74935,16c1.15059,0 2.08333,-0.9328 2.08333,-2.0834c0,-1.1505 -0.93274,-2.0833 -2.08333,-2.0833c-1.15059,0 -2.08333,0.9328 -2.08333,2.0833c0,1.1506 0.93274,2.0834 2.08333,2.0834z" clip-rule="evenodd" fill-rule="evenodd"/>
   <path fill="none" id="svg_5" stroke-linejoin="round" stroke-linecap="round" stroke-width="2" stroke="#333333" d="m15.5833,16c1.1506,0 2.0834,-0.9328 2.0834,-2.0834c0,-1.1505 -0.9328,-2.0833 -2.0834,-2.0833c-1.1506,0 -2.0833,0.9328 -2.0833,2.0833c0,1.1506 0.9327,2.0834 2.0833,2.0834z" clip-rule="evenodd" fill-rule="evenodd"/>
   <polyline stroke="null" stroke-linecap="round" id="svg_7" points="5.187456130981445,5.43745231628418 5.187456130981445,5.43745231628418 " stroke-width="1.5" fill="none"/>
   <polyline stroke="null" stroke-linecap="round" id="svg_8" points="2.812488555908203,2.8751044273376465 2.812488555908203,2.8751044273376465 " stroke-width="1.5" fill="none"/>
  </g>
 </g>
</svg>

<svg width="21" height="17" viewBox="0 0 21 17" fill="none" xmlns="http://www.w3.org/2000/svg">
<g opacity="0.5">
<rect x="1" y="1" width="12.5" height="10.8333" stroke="#333333" stroke-width="2" stroke-linecap="round" stroke-linejoin="round"/>
<path fill-rule="evenodd" clip-rule="evenodd" d="M13.5 5.16669H16.8333L19.3333 7.66669V11.8334H13.5V5.16669V5.16669Z" stroke="#333333" stroke-width="2" stroke-linecap="round" stroke-linejoin="round"/>
<path fill-rule="evenodd" clip-rule="evenodd" d="M4.74935 16C5.89994 16 6.83268 15.0672 6.83268 13.9166C6.83268 12.7661 5.89994 11.8333 4.74935 11.8333C3.59876 11.8333 2.66602 12.7661 2.66602 13.9166C2.66602 15.0672 3.59876 16 4.74935 16Z" stroke="#333333" stroke-width="2" stroke-linecap="round" stroke-linejoin="round"/>
<path fill-rule="evenodd" clip-rule="evenodd" d="M15.5833 16C16.7339 16 17.6667 15.0672 17.6667 13.9166C17.6667 12.7661 16.7339 11.8333 15.5833 11.8333C14.4327 11.8333 13.5 12.7661 13.5 13.9166C13.5 15.0672 14.4327 16 15.5833 16Z" stroke="#333333" stroke-width="2" stroke-linecap="round" stroke-linejoin="round"/>
</g>
</svg>
